src/assets/svg/home/warGame/icon_win.svg

<svg width="24" height="24" viewBox="0 0 24 24" fill="none" xmlns="http://www.w3.org/2000/svg">
<g clip-path="url(#clip0_2113_79915)">
<rect width="24" height="24" fill="black" fill-opacity="0.01"/>
<path d="M23.0822 5.70382C22.8176 5.27571 22.2534 5.15413 21.8336 5.43393C21.3948 5.73019 21.031 6.01143 20.7385 6.28132C19.3286 5.0139 16.9812 4.09895 14.1688 3.78402C13.715 3.16148 13.1338 2.55396 12.605 2.04769C12.2351 1.69383 11.6789 1.7327 11.3488 2.07772C10.8801 2.57282 10.3664 3.16533 9.96511 3.76901C7.17147 4.06142 4.82403 4.94268 3.38034 6.18025C3.07287 5.8763 2.66785 5.55386 2.16538 5.21641C1.74386 4.93553 1.18069 5.06175 0.920438 5.48264C0.211658 6.61896 -0.0920587 7.49271 0.0241639 8.07387C0.1592 8.83501 0.702915 9.43869 1.43037 9.66757L2.42414 14.0812H2.13164C1.53913 14.0812 1.05538 14.5611 1.05538 15.1573C1.05538 15.7498 1.53913 16.2299 2.13164 16.2299H2.28911V20.0435H2.13164C1.53913 20.0435 1.05538 20.5272 1.05538 21.1197C1.05538 21.7122 1.53913 22.196 2.13164 22.196H21.8672C22.4598 22.196 22.9435 21.7122 22.9435 21.1197C22.9435 20.5272 22.4598 20.0435 21.8672 20.0435H21.7098V16.2299H21.8672C22.4598 16.2299 22.9435 15.7498 22.9435 15.1573C22.9435 14.5611 22.4598 14.0812 21.8672 14.0812H21.6348L22.5685 9.87758C23.2885 9.64505 23.8397 9.03752 23.9785 8.29139C24.0872 7.70638 23.7835 6.83263 23.0822 5.70382ZM23.2398 8.15626C23.1423 8.68139 22.7185 9.10124 22.1823 9.20249C22.1785 9.20249 22.171 9.20634 22.1673 9.20634C22.0285 9.24003 21.9198 9.34879 21.886 9.49124C20.4934 15.7813 20.9737 13.6119 20.8698 14.0812C8.84452 14.0812 13.87 14.0812 3.1966 14.0812C3.08579 13.59 3.59801 15.8605 2.11288 9.27756C2.07914 9.13511 1.97038 9.03001 1.83163 8.99632C1.82788 8.99632 1.82037 8.99266 1.81662 8.99266C1.27291 8.88756 0.856674 8.47504 0.759173 7.93508C0.687901 7.56375 0.984157 6.7951 1.55415 5.88015C1.58934 5.82497 1.67253 5.79237 1.74539 5.83895C2.1875 6.13497 3.2534 6.92148 3.35786 7.44382C3.44786 7.92757 3.25661 8.43018 2.87036 8.72259C2.74658 8.81249 2.69413 8.96996 2.73162 9.11625L2.83658 9.52511C3.0016 10.17 3.5828 10.6162 4.24278 10.6162H4.95907C5.79258 10.6162 6.44091 9.92492 6.41023 9.10508C6.40272 8.95879 6.31273 8.83135 6.18149 8.77514C5.66776 8.56128 5.34527 8.07002 5.35653 7.52255C5.364 7.1439 5.81026 6.45014 6.55648 5.67013C6.61108 5.61561 6.69687 5.6156 6.75148 5.67013C7.52769 6.46881 8.00768 7.20011 8.00018 7.57144C7.99642 8.07002 7.70397 8.52759 7.26146 8.7376C6.98051 8.87022 7.06015 9.17259 7.05144 9.22135C7.08147 10.005 7.71893 10.6162 8.50269 10.6162H9.12889C10.5501 10.6162 11.7051 9.4614 11.7051 8.04384V8.0063C11.7051 7.84133 11.5963 7.69888 11.4426 7.65017C10.5614 7.37259 9.97262 6.56641 9.97262 5.6401C9.97262 5.04829 10.5879 4.15257 10.9476 3.69027C11.2139 3.34513 11.5326 2.97399 11.8926 2.59515C11.9553 2.53258 12.0343 2.54044 12.0876 2.58783C12.4888 2.97014 12.8413 3.34513 13.1413 3.69394C13.5188 4.14685 14.2063 5.03461 14.2063 5.62893C14.2138 6.59643 13.565 7.44016 12.6351 7.6802C12.4701 7.72506 12.3538 7.87502 12.3538 8.04384C12.3538 9.4614 13.5088 10.6162 14.9262 10.6162H15.455C16.2387 10.6162 16.8762 10.005 16.9062 9.22135C16.8999 9.18385 16.9843 8.86431 16.6999 8.7301C16.2574 8.51624 15.9687 8.06251 15.9649 7.5676C15.9537 7.19645 16.4337 6.46881 17.2137 5.67013C17.2698 5.60768 17.3681 5.62507 17.4087 5.67013C18.1549 6.45014 18.6049 7.1439 18.6086 7.5264C18.6199 8.07002 18.2974 8.56128 17.7874 8.77514C17.6524 8.83135 17.5624 8.95879 17.5549 9.10508C17.5235 9.94657 18.197 10.6162 19.0061 10.6162H19.8048C20.476 10.6162 21.0535 10.1625 21.2148 9.51376C21.2187 9.45066 21.3906 9.13925 21.1248 8.94011C20.7273 8.64386 20.5436 8.1526 20.6411 7.65384C20.6976 7.37029 21.0508 7.01842 21.2636 6.82146C21.526 6.57757 21.8598 6.31885 22.2535 6.05647C22.3153 6.01701 22.4028 6.03181 22.4447 6.09767C22.7232 6.54807 23.3433 7.63795 23.2398 8.15626ZM20.9598 20.0435H3.03909V16.2299H20.9598V20.0435Z" fill="#FAD54D"/>
<path d="M19.1186 19.0309C19.6136 19.0309 20.0111 18.6298 20.0111 18.1385C20.0111 17.6436 19.6136 17.2424 19.1186 17.2424C18.6236 17.2424 18.2261 17.6436 18.2261 18.1385C18.2261 18.6298 18.6236 19.0309 19.1186 19.0309Z" fill="#FAD54D"/>
<path d="M16.2724 19.0309C16.7637 19.0309 17.1649 18.6298 17.1649 18.1385C17.1649 17.6436 16.7637 17.2424 16.2724 17.2424C15.7774 17.2424 15.3762 17.6436 15.3762 18.1385C15.3762 18.6298 15.7774 19.0309 16.2724 19.0309Z" fill="#FAD54D"/>
<path d="M13.4225 19.0309C13.9175 19.0309 14.3188 18.6298 14.3188 18.1385C14.3188 17.6436 13.9175 17.2424 13.4225 17.2424C12.9313 17.2424 12.5301 17.6436 12.5301 18.1385C12.5301 18.6298 12.9313 19.0309 13.4225 19.0309Z" fill="#FAD54D"/>
<path d="M10.5764 19.0309C11.0676 19.0309 11.4688 18.6298 11.4688 18.1385C11.4688 17.6436 11.0676 17.2424 10.5764 17.2424C10.0814 17.2424 9.68012 17.6436 9.68012 18.1385C9.68012 18.6298 10.0814 19.0309 10.5764 19.0309Z" fill="#FAD54D"/>
<path d="M7.72644 19.0309C8.22145 19.0309 8.62267 18.6298 8.62267 18.1385C8.62267 17.6436 8.22145 17.2424 7.72644 17.2424C7.23523 17.2424 6.83401 17.6436 6.83401 18.1385C6.83401 18.6298 7.23523 19.0309 7.72644 19.0309Z" fill="#FAD54D"/>
<path d="M4.88029 19.0309C5.37526 19.0309 5.77277 18.6298 5.77277 18.1385C5.77277 17.6436 5.37526 17.2424 4.88029 17.2424C4.38533 17.2424 3.98782 17.6436 3.98782 18.1385C3.98782 18.6298 4.38533 19.0309 4.88029 19.0309Z" fill="#FAD54D"/>
<path d="M6.9652 11.31C6.85273 11.1188 6.64652 10.9987 6.42149 10.9987H5.86276C5.64153 10.9987 5.43151 11.1188 5.3228 11.31L5.04156 11.7937C4.93474 11.9835 4.92597 12.2006 5.04156 12.4199C5.06339 12.4575 5.34463 12.9412 5.3228 12.9037C5.43151 13.0948 5.64153 13.2149 5.86276 13.2149C5.90052 13.2149 6.45925 13.2149 6.42149 13.2149C6.95445 13.2149 7.06297 12.6535 7.24269 12.4199C7.35521 12.2249 7.35521 11.9849 7.24269 11.7937L6.9652 11.31Z" fill="#FAD54D"/>
<path d="M18.6761 11.31C18.5674 11.1188 18.3574 10.9987 18.1361 10.9987H17.5774C17.3524 10.9987 17.1462 11.1188 17.0337 11.31L16.7562 11.7937C16.6437 11.9849 16.6437 12.2249 16.7562 12.4199L17.0337 12.9037C17.1696 13.1172 17.3676 13.2149 17.5774 13.2149C17.6152 13.2149 18.1739 13.2149 18.1361 13.2149C18.5788 13.2149 18.7136 12.8175 18.7474 12.7799L18.9573 12.4199C19.0719 12.2223 19.0631 11.9816 18.9573 11.7937L18.6761 11.31Z" fill="#FAD54D"/>
<path d="M13.0176 10.9725C12.9051 10.7775 12.695 10.6574 12.4738 10.6574H11.5251C11.3038 10.6574 11.0938 10.7775 10.9814 10.9725L10.5089 11.7937C10.3964 11.9849 10.3964 12.2249 10.5089 12.4199L10.9814 13.2411C11.0938 13.4325 11.3038 13.5524 11.5251 13.5524H12.4738C12.695 13.5524 12.9051 13.4325 13.0176 13.2411L13.4901 12.4199C13.6025 12.2249 13.6025 11.9849 13.4901 11.7937L13.0176 10.9725Z" fill="#FAD54D"/>
</g>
<defs>
<clipPath id="clip0_2113_79915">
<rect width="24" height="24" fill="white"/>
</clipPath>
</defs>
</svg>

<svg width="24" height="24" viewBox="0 0 24 24" fill="none" xmlns="http://www.w3.org/2000/svg">
    <path d="M23.082 5.704a.886.886 0 0 0-1.248-.27 9.271 9.271 0 0 0-1.096.847c-1.41-1.267-3.757-2.182-6.57-2.497-.453-.623-1.034-1.23-1.563-1.736a.883.883 0 0 0-1.256.03c-.469.495-.983 1.087-1.384 1.691-2.794.292-5.141 1.174-6.585 2.411a8.402 8.402 0 0 0-1.215-.964.885.885 0 0 0-1.245.267C.212 6.619-.092 7.493.024 8.073A2.04 2.04 0 0 0 1.43 9.669l.994 4.413h-.292c-.593 0-1.077.48-1.077 1.076 0 .593.484 1.073 1.077 1.073h.157v3.814h-.157c-.593 0-1.077.483-1.077 1.076 0 .592.484 1.076 1.077 1.076h19.735c.593 0 1.076-.484 1.076-1.076 0-.593-.483-1.076-1.076-1.076h-.157V16.23h.157a1.076 1.076 0 1 0 0-2.149h-.232l.933-4.203a2.081 2.081 0 0 0 1.41-1.587c.11-.585-.195-1.458-.896-2.587zm.158 2.452a1.324 1.324 0 0 1-1.058 1.046c-.003 0-.011.004-.015.004a.382.382 0 0 0-.281.285l-1.016 4.59H3.197L2.113 9.278a.377.377 0 0 0-.281-.282l-.015-.003A1.313 1.313 0 0 1 .759 7.935c-.071-.371.225-1.14.795-2.055a.139.139 0 0 1 .191-.041c.442.296 1.508 1.082 1.613 1.605.09.484-.101.986-.488 1.279a.372.372 0 0 0-.138.393l.105.41a1.451 1.451 0 0 0 1.406 1.09h.716c.834 0 1.482-.691 1.451-1.51a.38.38 0 0 0-.229-.33 1.322 1.322 0 0 1-.824-1.253c.007-.38.453-1.073 1.2-1.853a.137.137 0 0 1 .194 0c.777.799 1.257 1.53 1.25 1.901a1.308 1.308 0 0 1-.74 1.167c-.28.132-.2.435-.21.483.03.784.668 1.395 1.452 1.395h.626a2.577 2.577 0 0 0 2.576-2.572v-.038a.375.375 0 0 0-.262-.356 2.094 2.094 0 0 1-1.47-2.01c0-.592.615-1.487.975-1.95.266-.345.585-.716.945-1.095a.136.136 0 0 1 .195-.007c.4.382.753.757 1.053 1.106.378.453 1.065 1.34 1.065 1.935a2.098 2.098 0 0 1-1.57 2.051.38.38 0 0 0-.282.364 2.576 2.576 0 0 0 2.572 2.572h.529c.784 0 1.421-.611 1.451-1.395-.006-.037.078-.357-.206-.49a1.308 1.308 0 0 1-.735-1.163c-.011-.372.469-1.1 1.249-1.898.056-.062.154-.045.195 0 .746.78 1.196 1.474 1.2 1.856a1.323 1.323 0 0 1-.822 1.25.377.377 0 0 0-.232.33 1.453 1.453 0 0 0 1.451 1.51h.799c.671 0 1.248-.454 1.41-1.102.004-.063.176-.375-.09-.574a1.278 1.278 0 0 1-.484-1.286c.057-.284.41-.636.623-.833a7.92 7.92 0 0 1 .99-.765.14.14 0 0 1 .19.042c.28.45.9 1.54.796 2.058zm-2.28 11.888H3.04V16.23h17.92v3.814z" fill="#FAD54D"/>
    <path d="M19.119 19.03a.892.892 0 0 0 .892-.892.893.893 0 1 0-1.785 0c0 .492.398.893.893.893zM16.272 19.03a.894.894 0 1 0-.004-1.788.894.894 0 0 0 .004 1.789zM13.422 19.03a.895.895 0 1 0 0-1.788.895.895 0 0 0 0 1.789zM10.576 19.03a.894.894 0 1 0-.004-1.788.894.894 0 0 0 .004 1.789zM7.726 19.03a.895.895 0 1 0 0-1.788.895.895 0 0 0 0 1.789zM4.88 19.03a.892.892 0 0 0 .893-.892.893.893 0 1 0-1.785 0c0 .492.397.893.892.893zM6.965 11.31a.631.631 0 0 0-.544-.311h-.558a.625.625 0 0 0-.54.311l-.281.484a.629.629 0 0 0 0 .626c.021.037.303.521.28.484a.625.625 0 0 0 .54.31h.56c.532 0 .641-.56.82-.794a.623.623 0 0 0 0-.626l-.277-.484zM18.676 11.31a.625.625 0 0 0-.54-.311h-.559a.631.631 0 0 0-.543.311l-.278.484a.623.623 0 0 0 0 .626l.278.484a.63.63 0 0 0 .543.31h.56c.442 0 .577-.396.61-.434l.21-.36a.634.634 0 0 0 0-.626l-.28-.484zM13.018 10.973a.632.632 0 0 0-.544-.316h-.949a.631.631 0 0 0-.544.316l-.472.82a.623.623 0 0 0 0 .627l.472.821a.635.635 0 0 0 .544.311h.949c.221 0 .431-.12.544-.31l.472-.822a.624.624 0 0 0 0-.626l-.472-.822z" fill="#FAD54D"/>
</svg>
